X:1
T:Summer Land (Fithian), 10.10.12.10
T:Summer Land (Fithian), 10.10.12.10
T:Powell George Fithian, 1901
T:Public Domain Courtesy of the Cyber Hymnal™
C:Powell George Fithian, 1901
Z:Public Domain
Z:Courtesy of the Cyber Hymnal™
%%score ( 1 2 ) ( 3 4 )
L:1/8
Q:1/4=120
M:3/4
K:Ab
V:1 treble 
V:2 treble 
V:3 bass 
V:4 bass 
V:1
 [Ac]2 [GB]2 [_Gc]2 | [Fd]4 [_FA]2 | !fermata![Ec]4 E2 | [DB]4 [CA]2 | !fermata![CA]6 | %5
 [Ac]2 [GB]2 [_Gc]2 | [Fd]4 [_FA]2 | !fermata![Ec]4 E2 | [DB]4 [CA]2 | !fermata![CA]6 | %10
 [FA]2 [FA]2 [FA]2 | [EG]4 [DF]2 | [CE]6 | [Ec]2 [Ec]2 [Ec]2 | [=Dc]4 [DB]2 | !fermata![EB]6 | %16
 [Fd]2 [Fd]2 [Fd]2 | [=Ec]4 [EG]2 | !fermata![FA]4!pp! [FB]2"^riten." |!>(! [EA]4 [DG]2!>)! | %20
 !fermata![CA]6 |] %21
V:2
 x6 | x6 | x4 E2 | x6 | x6 | x6 | x6 | x4 E2 | x6 | x6 | x6 | x6 | x6 | x6 | x6 | x6 | x6 | x6 | %18
 x6 | x6 | x6 |] %21
V:3
 [A,,E]6 | [A,,D]6 | !fermata![A,,C]4 E,2 | [E,G,]4 [A,,E,A,]2 | !fermata![A,,E,A,]6 | [A,,E]6 | %6
 [A,,D]6 | !fermata![A,,C]4 E,2 | [E,G,]4 [A,,E,A,]2 | !fermata![A,,E,A,]6 | [D,A,]6 | %11
 [D,A,]4 [D,A,]2 | [A,,A,]6 | A,4 A,2 | [F,A,]4 [B,,A,]2 | !fermata![E,G,]6 | B,4 A,2 | %17
 [C,G,]4 [C,C]2 | !fermata![F,C]4 [D,D]2 | [E,C]4 [E,B,]2 | !fermata![A,,A,]6 |] %21
V:4
 x6 | x6 | x4 E,2 | x6 | x6 | x6 | x6 | x4 E,2 | x6 | x6 | x6 | x6 | x6 | A,4 A,2 | x6 | x6 | %16
 B,,6 | x6 | x6 | x6 | x6 |] %21

